svg/media/mic_off_line.svg

<?xml version="1.0" encoding="UTF-8"?>
<svg width="24px" height="24px" viewBox="0 0 24 24" version="1.1" xmlns="http://www.w3.org/2000/svg" xmlns:xlink="http://www.w3.org/1999/xlink">
    <title>mic_off_line</title>
    <g id="页面-1" stroke="none" stroke-width="1" fill="none" fill-rule="evenodd">
        <g id="Media" transform="translate(-528.000000, -96.000000)">
            <g id="mic_off_line" transform="translate(528.000000, 96.000000)">
                 <path d="M24,0 L24,24 L0,24 L0,0 L24,0 Z M12.5934901,23.257841 L12.5819402,23.2595131 L12.5108777,23.2950439 L12.4918791,23.2987469 L12.4918791,23.2987469 L12.4767152,23.2950439 L12.4056548,23.2595131 C12.3958229,23.2563662 12.3870493,23.2590235 12.3821421,23.2649074 L12.3780323,23.275831 L12.360941,23.7031097 L12.3658947,23.7234994 L12.3769048,23.7357139 L12.4804777,23.8096931 L12.4953491,23.8136134 L12.4953491,23.8136134 L12.5071152,23.8096931 L12.6106902,23.7357139 L12.6232938,23.7196733 L12.6232938,23.7196733 L12.6266527,23.7031097 L12.609561,23.275831 C12.6075724,23.2657013 12.6010112,23.2592993 12.5934901,23.257841 L12.5934901,23.257841 Z M12.8583906,23.1452862 L12.8445485,23.1473072 L12.6598443,23.2396597 L12.6498822,23.2499052 L12.6498822,23.2499052 L12.6471943,23.2611114 L12.6650943,23.6906389 L12.6699349,23.7034178 L12.6699349,23.7034178 L12.678386,23.7104931 L12.8793402,23.8032389 C12.8914285,23.8068999 12.9022333,23.8029875 12.9078286,23.7952264 L12.9118235,23.7811639 L12.8776777,23.1665331 C12.8752882,23.1545897 12.8674102,23.1470016 12.8583906,23.1452862 L12.8583906,23.1452862 Z M12.1430473,23.1473072 C12.1332178,23.1423925 12.1221763,23.1452606 12.1156365,23.1525954 L12.1099173,23.1665331 L12.0757714,23.7811639 C12.0751323,23.7926639 12.0828099,23.8018602 12.0926481,23.8045676 L12.108256,23.8032389 L12.3092106,23.7104931 L12.3186497,23.7024347 L12.3186497,23.7024347 L12.3225043,23.6906389 L12.340401,23.2611114 L12.337245,23.2485176 L12.337245,23.2485176 L12.3277531,23.2396597 L12.1430473,23.1473072 Z" id="MingCute" fill-rule="nonzero"></path>
                <path d="M4.92909,12.0101 C5.47581,11.9319 5.98241,12.3117 6.06061,12.8584 C6.47639,15.7651 8.97796,18 11.9998,18 C12.6607429,18 13.2967796,17.893102 13.891537,17.6956163 L14.1854,17.5894 L15.6939,19.0979 C14.9728125,19.4740625 14.1871828,19.7434203 13.3579125,19.8852059 L12.9999,19.9381 L12.9999,21 C12.9999,21.5523 12.5522,22 11.9999,22 C11.48705,22 11.0643908,21.613973 11.0066275,21.1166239 L10.9999,21 L10.9999,19.9381 C7.42826,19.4929 4.58885,16.6937 4.08076,13.1416 C4.00256,12.5949 4.38237,12.0883 4.92909,12.0101 Z M11.9999,2 C14.6886316,2 16.8817169,4.12231026 16.9952804,6.78311066 L16.9999,7 L16.9999,12 C16.9999,12.9263636 16.7479165,13.7938843 16.3088632,14.5377986 L16.1716,14.7572 L16.8908,15.4765 C17.4323,14.7162 17.8008,13.8244 17.939,12.8584 C18.0172,12.3117 18.5238,11.9319 19.0705,12.0101 C19.6172,12.0883 19.997,12.5949 19.9188,13.1416 C19.7332615,14.4389846 19.236632,15.6359953 18.5069347,16.6545298 L18.3197,16.9054 L20.4854,19.071 C20.8759,19.4616 20.8759,20.0947 20.4854,20.4853 C20.1249385,20.8457615 19.5576793,20.8734893 19.1654027,20.5684834 L19.0712,20.4853 L3.51482,4.92891 C3.12429,4.53838 3.12429,3.90522 3.51482,3.51469 C3.8753,3.15421 4.44253503,3.12648077 4.8348235,3.43150231 L4.92903,3.51469 L7.15883,5.74449 C7.71579,3.59075 9.67207,2 11.9999,2 Z M6.99988,10.4039 L9.03123,12.4353 C9.22141,13.7437 10.2561,14.7785 11.5646,14.9687 L13.3979,16.8019 C12.9542,16.9309 12.4851,17 11.9999,17 C9.23846,17 6.99988,14.7614 6.99988,12 L6.99988,10.4039 Z M11.9999,4 C10.343,4 8.99988,5.34315 8.99988,7 L8.99988,7.58555 L14.7076,13.2933 C14.895,12.9017 14.9999,12.4631 14.9999,12 L14.9999,7 C14.9999,5.34315 13.6567,4 11.9999,4 Z" id="形状" fill="#09244B"></path>
            </g>
        </g>
    </g>
</svg>

<svg xmlns="http://www.w3.org/2000/svg" width="24" height="24"><g fill="none" fill-rule="evenodd"><path d="M24 0v24H0V0h24ZM12.593 23.258l-.011.002-.071.035-.02.004-.014-.004-.071-.035c-.01-.004-.019-.001-.024.005l-.004.01-.017.428.005.02.01.013.104.074.015.004.012-.004.104-.074.012-.016.004-.017-.017-.427c-.002-.01-.009-.017-.017-.018Zm.265-.113-.013.002-.185.093-.01.01-.003.011.018.43.005.012.008.007.201.093c.012.004.023 0 .029-.008l.004-.014-.034-.614c-.003-.012-.01-.02-.02-.022Zm-.715.002a.023.023 0 0 0-.027.006l-.006.014-.034.614c0 .012.007.02.017.024l.015-.002.201-.093.01-.008.004-.011.017-.43-.003-.012-.01-.01-.184-.092Z"/><path fill="#09244B" d="M4.93 12.01a1 1 0 0 1 1.13.848 6.002 6.002 0 0 0 7.832 4.838l.293-.107 1.509 1.509a7.94 7.94 0 0 1-2.336.787l-.358.053V21a1 1 0 0 1-1.993.117L11 21v-1.062a8.004 8.004 0 0 1-6.92-6.796 1 1 0 0 1 .85-1.132ZM12 2a5 5 0 0 1 4.995 4.783L17 7v5c0 .926-.252 1.794-.691 2.538l-.137.22.719.719c.541-.76.91-1.653 1.048-2.619a1 1 0 0 1 1.98.284 7.96 7.96 0 0 1-1.412 3.513l-.187.25 2.165 2.166a1 1 0 0 1-1.32 1.497l-.094-.083L3.515 4.93a1 1 0 0 1 1.32-1.497l.094.083 2.23 2.23A5.002 5.002 0 0 1 11.999 2Zm-5 8.404 2.031 2.031a3.002 3.002 0 0 0 2.534 2.534l1.833 1.833A5 5 0 0 1 7 12v-1.596ZM12 4a3 3 0 0 0-3 3v.586l5.708 5.707c.187-.391.292-.83.292-1.293V7a3 3 0 0 0-3-3Z"/></g></svg>
